X: 23235
T: Leather Away The Wattle-O
R: polka
M: 2/4
K: Dmajor
|:dA FA|d>e fd|ed cd|e>f ge|
af ge|d/e/d/B/ A>F|GB A>G|FD D2:|
|:f>e fd|g>f ge|f>e fa|gf ef/g/|
af ge|d/e/d/B/ A>F|GB AG|FD D2:|

